X:57
T:The Fire Ship
M:C|
L:1/8
Q:1/4=120
K:G
D2D2|\
G2D2 B,2D2|G2d2 B2G2|F2E2 D2E2|D6 D2|
G2D2 B,2D2|G2d2 B2G2|F2E2 D2E2|D6 D2|
A2A2 A3 B |AFD4   A2|B2A2 B2c2|B6 B2|
c2A2 d2c2 |B2G2 c2BB|A2G2 F2E2|(D2E2F4)|z2D2 E2F2|
G2G2 G2G2 |(G2d2B2)FG|A2A2 A2G2|FED2-DDDD|
B4   d3c  |B2B2 d3c |BA2G  G2A2|G4||
